X:1
T:The River Lea
M:2/4
L:1/8
K:D
 A/2A/2| AA F F/2F/2| FF DD| DD EF| G2 z B| B/2B/2 B/2B/2 GG| EE C A/2A/2|\
 BA ^GA| F2 z A| AA F F/2F/2| F F2 D| DD EF| G2 z B/2B/2| B G/2G/2 GE|\
 C A2 A| B A/2A/2 GE| D2 z A| FA BA| D3 D| C3/2 D/2 E3/2 D/2| CB, z3/2 B,/2|\
 B,/2 B,3/2 EE| GG B3/2 B/2| A3/2 F/2 EA,| D,2 z||
